styles/5/Numix/22/places/custom-folder-vm.svg

<?xml version="1.0" encoding="UTF-8" standalone="no"?>
<!-- Created with Inkscape (http://www.inkscape.org/) -->

<svg
   xmlns:dc="http://purl.org/dc/elements/1.1/"
   xmlns:cc="http://creativecommons.org/ns#"
   xmlns:rdf="http://www.w3.org/1999/02/22-rdf-syntax-ns#"
   xmlns:svg="http://www.w3.org/2000/svg"
   xmlns="http://www.w3.org/2000/svg"
   xmlns:xlink="http://www.w3.org/1999/xlink"
   xmlns:sodipodi="http://sodipodi.sourceforge.net/DTD/sodipodi-0.dtd"
   xmlns:inkscape="http://www.inkscape.org/namespaces/inkscape"
   width="22"
   height="22"
   id="svg2"
   version="1.1"
   inkscape:version="0.91 r"
   sodipodi:docname="custom-folder-vm.svg"
   inkscape:export-filename="/media/Data/Main/Visuals/Icons/Numix/Desktop/repos/numix-wiki/Gjorgi/Numix-folders/48/New/folder-144.png"
   inkscape:export-xdpi="270"
   inkscape:export-ydpi="270">
  <defs
     id="defs4">
    <linearGradient
       id="linearGradient3886-9">
      <stop
         style="stop-color:#000000;stop-opacity:1;"
         offset="0"
         id="stop3888-1" />
      <stop
         style="stop-color:#000000;stop-opacity:0.19607843;"
         offset="1"
         id="stop3890-9" />
    </linearGradient>
    <radialGradient
       r="24"
       fy="40.5"
       fx="24"
       cy="40.5"
       cx="24"
       gradientTransform="matrix(0.625,0,0,0.10416663,-4,1045.1435)"
       gradientUnits="userSpaceOnUse"
       id="radialGradient3081"
       xlink:href="#linearGradient3886-9"
       inkscape:collect="always" />
  </defs>
  <sodipodi:namedview
     id="base"
     pagecolor="#ffffff"
     bordercolor="#666666"
     borderopacity="1.0"
     inkscape:pageopacity="0.0"
     inkscape:pageshadow="2"
     inkscape:zoom="22.603171"
     inkscape:cx="9.3807122"
     inkscape:cy="11.149467"
     inkscape:document-units="px"
     inkscape:current-layer="layer1"
     showgrid="true"
     inkscape:window-width="1280"
     inkscape:window-height="998"
     inkscape:window-x="0"
     inkscape:window-y="0"
     inkscape:window-maximized="1"
     showguides="true"
     inkscape:guide-bbox="true"
     inkscape:object-nodes="true">
    <inkscape:grid
       type="xygrid"
       id="grid2985"
       empspacing="5"
       visible="true"
       enabled="true"
       snapvisiblegridlinesonly="true" />
  </sodipodi:namedview>
  <metadata
     id="metadata7">
    <rdf:RDF>
      <cc:Work
         rdf:about="">
        <dc:format>image/svg+xml</dc:format>
        <dc:type
           rdf:resource="http://purl.org/dc/dcmitype/StillImage" />
        <dc:title />
      </cc:Work>
    </rdf:RDF>
  </metadata>
  <g
     inkscape:label="Layer 1"
     inkscape:groupmode="layer"
     id="layer1"
     transform="translate(0,-1030.3622)">
    <path
       inkscape:connector-curvature="0"
       style="opacity:0.1;fill:url(#radialGradient3081);fill-opacity:1;stroke:none"
       d="m 11,1046.8622 c -4.9132745,0 -9.2639851,0.3915 -12,1 l 0,3 c 2.7360149,0.6085 7.0867255,1 12,1 4.913274,0 9.263985,-0.3915 12,-1 l 0,-3 c -2.736015,-0.6085 -7.086726,-1 -12,-1 z"
       id="path3868" />
    <rect
       style="fill:replacecolour2;fill-opacity:1;stroke:none"
       id="rect2987"
       width="22"
       height="16.00001"
       x="0"
       y="1034.3622"
       rx="2.3913043"
       ry="2.5" />
    <path
       style="opacity:0.2;fill:#ffffff;fill-opacity:1;stroke:none"
       d="M 2.3913043,1034.3622 C 1.0665217,1034.3622 0,1035.4772 0,1036.8622 l 0,1 c 0,-1.385 1.0665217,-2.5 2.3913043,-2.5 l 17.2173917,0 c 1.324782,0 2.391304,1.115 2.391304,2.5 l 0,-1 c 0,-1.385 -1.066522,-2.5 -2.391304,-2.5 l -17.2173917,0 z"
       id="rect3797"
       inkscape:connector-curvature="0" />
    <path
       style="fill:replacecolour1;fill-opacity:1;stroke:none"
       d="m 2.3913043,1038.3622 3.826087,0 c 5.2608697,-0.5 4.3043477,-6 7.6521737,-6 l 5.739131,0 c 1.324782,0 2.391304,1.115 2.391304,2.5 l 0,13 c 0,1.385 -1.066522,2.5 -2.391304,2.5 l -17.2173917,0 C 1.0665217,1050.3622 0,1049.2472 0,1047.8622 l 0,-7 c 0,-1.5 0.9565217,-2.5 2.3913043,-2.5 z"
       id="rect3776"
       inkscape:connector-curvature="0"
       sodipodi:nodetypes="cccsssssscc" />
    <path
       style="opacity:0.15;fill:#000000;fill-opacity:1;stroke:none"
       d="m 0,1046.8622 0,1 c 0,1.385 1.0665217,2.5 2.3913043,2.5 l 17.2173917,0 c 1.324782,0 2.391304,-1.115 2.391304,-2.5 l 0,-1 c 0,1.385 -1.066522,2.5 -2.391304,2.5 l -17.2173917,0 C 1.0665217,1049.3622 0,1048.2472 0,1046.8622 z"
       id="path3786"
       inkscape:connector-curvature="0" />
    <path
       id="path3282"
       d="m 4,1041.3622 c -0.5232163,0 -1,0.5152 -1,1 l 0,5 c 0,0.4847 0.4878441,1 1,1 l 3,0 c 0.5287465,0 1,-0.5153 1,-1 l 0,-5 c 0,-0.4848 -0.4491327,-1 -1,-1 l -3,0 z m 0,1 3,0 0,1 -3,0 0,-1 z m 0,2 3,0 0,1 -3,0 0,-1 z m 1.5,2 c 0.2761424,0 0.5,0.2239 0.5,0.5 0,0.2761 -0.2238576,0.5 -0.5,0.5 -0.2761424,0 -0.5,-0.2239 -0.5,-0.5 0,-0.2761 0.2238576,-0.5 0.5,-0.5 z"
       style="fill:#000000;fill-opacity:0.09803922"
       inkscape:connector-curvature="0" />
    <path
       style="fill:replacecolour3;fill-opacity:1"
       d="M 4 10 C 3.4767837 10 3 10.5152 3 11 L 3 16 C 3 16.4847 3.4878441 17 4 17 L 7 17 C 7.5287465 17 8 16.4847 8 16 L 8 11 C 8 10.5152 7.5508673 10 7 10 L 4 10 z M 4 11 L 7 11 L 7 12 L 4 12 L 4 11 z M 4 13 L 7 13 L 7 14 L 4 14 L 4 13 z M 5.5 15 C 5.7761424 15 6 15.223858 6 15.5 C 6 15.776142 5.7761424 16 5.5 16 C 5.2238576 16 5 15.776142 5 15.5 C 5 15.223858 5.2238576 15 5.5 15 z "
       transform="translate(0,1030.3622)"
       id="rect3007" />
  </g>
</svg>

<!-- Created with Inkscape (http://www.inkscape.org/) -->
<svg xmlns="http://www.w3.org/2000/svg" viewBox="0 0 22 22">
 <defs>
  <radialGradient r="24" cy="40.5" cx="24" gradientTransform="matrix(0.625,0,0,0.10416663,-4,1045.1435)" gradientUnits="userSpaceOnUse" id="radialGradient3081">
   <stop style="stop-color:#000;stop-opacity:1"/>
   <stop offset="1" style="stop-color:#000;stop-opacity:0.196"/>
  </radialGradient>
 </defs>
 <g transform="translate(0,-1030.3622)">
  <path d="m 11 1046.86 c -4.913 0 -9.264 0.391 -12 1 l 0 3 c 2.736 0.609 7.087 1 12 1 4.913 0 9.264 -0.391 12 -1 l 0 -3 c -2.736 -0.609 -7.087 -1 -12 -1 z" style="fill:url(#radialGradient3081);opacity:0.1;fill-opacity:1;stroke:none"/>
  <rect width="22" height="16" y="1034.36" rx="2.391" ry="2.5" style="fill:replacecolour2;fill-opacity:1;stroke:none"/>
  <path d="m 2.391 1034.36 c -1.325 0 -2.391 1.115 -2.391 2.5 l 0 1 c 0 -1.385 1.067 -2.5 2.391 -2.5 l 17.217 0 c 1.325 0 2.391 1.115 2.391 2.5 l 0 -1 c 0 -1.385 -1.067 -2.5 -2.391 -2.5 l -17.217 0 z" style="fill:#fff;opacity:0.2;fill-opacity:1;stroke:none"/>
  <path d="m 2.391 1038.36 3.826 0 c 5.261 -0.5 4.304 -6 7.652 -6 l 5.739 0 c 1.325 0 2.391 1.115 2.391 2.5 l 0 13 c 0 1.385 -1.067 2.5 -2.391 2.5 l -17.217 0 c -1.325 0 -2.391 -1.115 -2.391 -2.5 l 0 -7 c 0 -1.5 0.957 -2.5 2.391 -2.5 z" style="fill:replacecolour1;fill-opacity:1;stroke:none"/>
  <path d="m 0 1046.86 0 1 c 0 1.385 1.067 2.5 2.391 2.5 l 17.217 0 c 1.325 0 2.391 -1.115 2.391 -2.5 l 0 -1 c 0 1.385 -1.067 2.5 -2.391 2.5 l -17.217 0 c -1.325 0 -2.391 -1.115 -2.391 -2.5 z" style="fill:#000;opacity:0.15;fill-opacity:1;stroke:none"/>
  <path d="m 4 1041.36 c -0.523 0 -1 0.515 -1 1 l 0 5 c 0 0.485 0.488 1 1 1 l 3 0 c 0.529 0 1 -0.515 1 -1 l 0 -5 c 0 -0.485 -0.449 -1 -1 -1 l -3 0 z m 0 1 3 0 0 1 -3 0 0 -1 z m 0 2 3 0 0 1 -3 0 0 -1 z m 1.5 2 c 0.276 0 0.5 0.224 0.5 0.5 0 0.276 -0.224 0.5 -0.5 0.5 -0.276 0 -0.5 -0.224 -0.5 -0.5 0 -0.276 0.224 -0.5 0.5 -0.5 z" style="fill:#000;fill-opacity:0.098"/>
  <path d="m 4 10 c -0.523 0 -1 0.515 -1 1 l 0 5 c 0 0.485 0.488 1 1 1 l 3 0 c 0.529 0 1 -0.515 1 -1 l 0 -5 c 0 -0.485 -0.449 -1 -1 -1 l -3 0 z m 0 1 l 3 0 l 0 1 l -3 0 l 0 -1 z m 0 2 l 3 0 l 0 1 l -3 0 l 0 -1 z m 1.5 2 c 0.276 0 0.5 0.224 0.5 0.5 c 0 0.276 -0.224 0.5 -0.5 0.5 c -0.276 0 -0.5 -0.224 -0.5 -0.5 c 0 -0.276 0.224 -0.5 0.5 -0.5 z" transform="translate(0,1030.3622)" style="fill:replacecolour3;fill-opacity:1"/>
 </g>
</svg>
